icons/MITAppInventor.svg

<svg xmlns="http://www.w3.org/2000/svg" width="256" height="257" style="background:0 0;background-color:transparent;color-scheme:light dark" viewBox="-0.5 -0.5 256 257"><rect width="256" height="256" fill="#ed8332" pointer-events="all" rx="58.88" ry="58.88" style="fill:light-dark(#ed8332,#ed8332)"/><path fill="#fff" d="M70.33 23.5h115.35L241.55 128l-55.87 104.5H70.33L14.46 128Z" pointer-events="all" style="fill:light-dark(#fff,#fff)" transform="rotate(-90 128 128)"/><path fill="#8f2676" d="M69.86 55.5h37.28l20.86 39-20.86 39H69.86L49 94.5Z" pointer-events="all" style="fill:light-dark(#8f2676,#8f2676)" transform="rotate(90 88.5 94.5)"/><path fill="#a2c845" d="M147.36 56h38.28l20.86 39-20.86 39h-38.28L126.5 95Z" pointer-events="all" style="fill:light-dark(#a2c845,#a2c845)" transform="rotate(90 166.5 95)"/><path fill="#ed8332" d="M107 120.48h42l20 38-20 38h-42l-20-38Z" pointer-events="all" style="fill:light-dark(#ed8332,#ed8332)" transform="rotate(90 128 158.48)"/><path fill="#fff" d="M105.5 105.04h13.6v6h-13.6z" pointer-events="all" style="fill:light-dark(#fff,#fff)" transform="rotate(60 112.3 108.04)"/><path fill="#fff" d="m95.2 106 2.99-6h16.01l-2.99 6Z" pointer-events="all" style="fill:light-dark(#fff,#fff)" transform="matrix(-1 0 0 1 209.4 0)"/><path fill="#fff" d="M138 105.04h13.6v6H138z" pointer-events="all" style="fill:light-dark(#fff,#fff)" transform="rotate(-60 144.8 108.04)"/><path fill="#fff" d="m142.9 106 2.99-6h16.01l-2.99 6Z" pointer-events="all" style="fill:light-dark(#fff,#fff)"/><path fill="#505150" d="M90 160.98h76v8H90zM90 145.98h76v8H90z" pointer-events="all" style="fill:light-dark(#505150,#505150)"/><path fill="none" stroke="#ed8332" stroke-miterlimit="10" stroke-width="8" d="M221 119q-35.1-7.52-60 18M162.9 171.48q9 11 23 13M93.2 171.48q-9 11.52-23 13.52M35 119q35-8.52 59 18" pointer-events="stroke" style="stroke:light-dark(#ed8332,#ed8332)"/><path fill="#fff" d="M114.01 86q28 0 28 38t-28 38Z" pointer-events="all" style="fill:light-dark(#fff,#fff)" transform="rotate(270 128.01 124)"/><circle cx="118" cy="125.98" r="3.5" fill="#505150" pointer-events="all" style="fill:light-dark(#505150,#505150)"/><circle cx="137" cy="125.98" r="3.5" fill="#505150" pointer-events="all" style="fill:light-dark(#505150,#505150)"/></svg>

<svg host="65bd71144e" xmlns="http://www.w3.org/2000/svg" style="background: transparent; background-color: transparent; color-scheme: light dark;" xmlns:xlink="http://www.w3.org/1999/xlink" version="1.1" width="256px" height="257px" viewBox="-0.5 -0.5 256 257" content="&lt;mxfile&gt;&lt;diagram id=&quot;1bc4uD2rmdcI9x6hvTfO&quot; name=&quot;ページ1&quot;&gt;7ZpZb9s4EIB/jYH2wQIPUcdj4thJsZtuiqDdIC+FYtE2E1nU0vLVX1/K1EEdduTEjoNt/BCQQ4qk5pshh6N0cG+6uhReNLnmPg06CPirDr7oIGQiS/5NBGslsCBUgrFgvhKBQnDLflElhJl0znw6S2VKFHMexCwqC4c8DOkwLsk8Ifiy3G3EA78kiLwxrQluh15Ql/7L/HiipA6yC/kVZeNJNjO0XNUy9bLO6ZvMJp7Pl5oI9zu4JziPVWm66tEg0V1ZL4MtrenCZvE6W2q2IkHDuM0IPwaLXjccR5Pv88v+9f352VX3WzcdduEF89Kw2jzLCYvpbeQNk/pSUu/g80k8DWQNyqI3ixSIEVtROdW54PPQT0qqWQxTygjL6iwW/In2eMCFFIU8lC3nIxYEmShIlNv1PfH0qYNw/8LBWK6nl5c/y/5TvvAeNstLZhB0xn7pdR57sVaXFkr1OvWZXg348GmzWiArqVlpzVISeyykIu1R13qmQipiutJEKYVLyqc0FmvZZVlYFCKpo0w0a8qFXmrF4/zZgqsspGibMfdgNLYYWD6A7vDiv8dHf/X3X20wS3uNkuKErrwxD+WrRlQwOf3m1VPpTSaSr3f+jGFs7CFln3NhycgXXTdR5Uy1EWI4NtB+ZH87GWx+yk5U+fMrWWWtpmESV/+pEdLtDWGDKIHOFtkGcBvwZsLX4P055e7owo+sqX8XAXDn4tFDN9s9T8rXZ0K6jgI84/NEG80YU+4IGA6xISImdAiyHGzuROwMkGVbCrEqF4hrPBuob0VsuhnDFCqpI7WdOk77aDTfg7cemeYZ6jkmUTRV+UA0oXS+F+F0wOtx4vcKLmN0qBP4ADurC0qUILQN09FOAVSn1nBkOuj11L59DUZ4+vOq3/fP2B16/C7unVZOWI50nouT8kAIlA9DazuVgEVX6QNJ+UdWPsE5CIhBAHQRth3HMi2rfA4mzcDcSQ9io4HfAQKeZnyovStKxXhBQAM+Ft604pCltpuiYV+vzDzQcF091HG3odfCZqBZAjwNfZcYqMIb1AE3hDwHwGu+lR92dzjiCRwOO+/Gw9z/ly+d4hYhF3sqB2reH/dyK/A8pD39hgACCVCqVuUjhRUWMFynXShxLFVbf4iqTfKGqh70e+Qh+uf+dv4VDNarL+b1A+u22Kho6J8lecJCc5pmyxiGc7HITxWl9Cwn6NQwvCpqpn4pK7kzc0RAXZ+ZTNBAnmaLci6zScvpDDecyZXkQPNH8pi8csWV9wkxpOlTeqqxMhC0KgNhuzxQ7IkxjWsDSTLeWusWJR1m2xcsr5rVfRXCpmtEYVRqisLEciW/3OraXBU+zG4HRat2OtqNFPe3w7p9OObOkQ9lmPIFqhOjtzfMFpegD8PcTtHFBtRTv+W8kjLSlxmmDXaOLM1Wj2wBPoqRSlfYuQjctIjjGmyLBNqHwW4niisIX3p+u+abHN+Wa5Q+rVRmheCYO+YeCSLe4pKqp11DLrbny0+RvgEGqEZ2oOzcafMzcfvx7kikheMHAYtmtEWGp/pF+r1cmCA0K98mIJJRgV3/vKhzqGOwj0XB+SMoYHwiCrJa/P+H2rKKf6LB/d8=&lt;/diagram&gt;&lt;/mxfile&gt;">
    <defs/>
    <g>
        <g>
            <rect x="0" y="0" width="256" height="256" rx="58.88" ry="58.88" fill="#ed8332" stroke="none" pointer-events="all" style="fill: light-dark(rgb(237, 131, 50), rgb(237, 131, 50));"/>
        </g>
        <g>
            <path d="M 70.33 23.5 L 185.68 23.5 L 241.55 128 L 185.68 232.5 L 70.33 232.5 L 14.46 128 Z" fill="#ffffff" stroke="none" transform="rotate(-90,128,128)" pointer-events="all" style="fill: light-dark(rgb(255, 255, 255), rgb(255, 255, 255));"/>
        </g>
        <g>
            <path d="M 69.86 55.5 L 107.14 55.5 L 128 94.5 L 107.14 133.5 L 69.86 133.5 L 49 94.5 Z" fill="#8f2676" stroke="none" transform="rotate(90,88.5,94.5)" pointer-events="all" style="fill: light-dark(rgb(143, 38, 118), rgb(143, 38, 118));"/>
        </g>
        <g>
            <path d="M 147.36 56 L 185.64 56 L 206.5 95 L 185.64 134 L 147.36 134 L 126.5 95 Z" fill="#a2c845" stroke="none" transform="rotate(90,166.5,95)" pointer-events="all" style="fill: light-dark(rgb(162, 200, 69), rgb(162, 200, 69));"/>
        </g>
        <g>
            <path d="M 107 120.48 L 149 120.48 L 169 158.48 L 149 196.48 L 107 196.48 L 87 158.48 Z" fill="#ed8332" stroke="none" transform="rotate(90,128,158.48)" pointer-events="all" style="fill: light-dark(rgb(237, 131, 50), rgb(237, 131, 50));"/>
        </g>
        <g>
            <rect x="105.5" y="105.04" width="13.6" height="6" fill="#ffffff" stroke="none" transform="rotate(60,112.3,108.04)" pointer-events="all" style="fill: light-dark(rgb(255, 255, 255), rgb(255, 255, 255));"/>
        </g>
        <g>
            <path d="M 95.2 106 L 98.19 100 L 114.2 100 L 111.21 106 Z" fill="#ffffff" stroke="none" transform="translate(104.7,0)scale(-1,1)translate(-104.7,0)" pointer-events="all" style="fill: light-dark(rgb(255, 255, 255), rgb(255, 255, 255));"/>
        </g>
        <g>
            <rect x="138" y="105.04" width="13.6" height="6" fill="#ffffff" stroke="none" transform="rotate(-60,144.8,108.04)" pointer-events="all" style="fill: light-dark(rgb(255, 255, 255), rgb(255, 255, 255));"/>
        </g>
        <g>
            <path d="M 142.9 106 L 145.89 100 L 161.9 100 L 158.91 106 Z" fill="#ffffff" stroke="none" pointer-events="all" style="fill: light-dark(rgb(255, 255, 255), rgb(255, 255, 255));"/>
        </g>
        <g>
            <rect x="90" y="160.98" width="76" height="8" fill="#505150" stroke="none" pointer-events="all" style="fill: light-dark(rgb(80, 81, 80), rgb(80, 81, 80));"/>
        </g>
        <g>
            <rect x="90" y="145.98" width="76" height="8" fill="#505150" stroke="none" pointer-events="all" style="fill: light-dark(rgb(80, 81, 80), rgb(80, 81, 80));"/>
        </g>
        <g>
            <path d="M 221 119 Q 185.9 111.48 161 137" fill="none" stroke="#ed8332" stroke-width="8" stroke-miterlimit="10" pointer-events="stroke" style="stroke: light-dark(rgb(237, 131, 50), rgb(237, 131, 50));"/>
        </g>
        <g>
            <path d="M 162.9 171.48 Q 171.9 182.48 185.9 184.48" fill="none" stroke="#ed8332" stroke-width="8" stroke-miterlimit="10" pointer-events="stroke" style="stroke: light-dark(rgb(237, 131, 50), rgb(237, 131, 50));"/>
        </g>
        <g>
            <path d="M 93.2 171.48 Q 84.2 183 70.2 185" fill="none" stroke="#ed8332" stroke-width="8" stroke-miterlimit="10" pointer-events="stroke" style="stroke: light-dark(rgb(237, 131, 50), rgb(237, 131, 50));"/>
        </g>
        <g>
            <path d="M 35 119 Q 70 110.48 94 137" fill="none" stroke="#ed8332" stroke-width="8" stroke-miterlimit="10" pointer-events="stroke" style="stroke: light-dark(rgb(237, 131, 50), rgb(237, 131, 50));"/>
        </g>
        <g>
            <path d="M 114.01 86 Q 142.01 86 142.01 124 Q 142.01 162 114.01 162 Z" fill="#ffffff" stroke="none" transform="rotate(270,128.01,124)" pointer-events="all" style="fill: light-dark(rgb(255, 255, 255), rgb(255, 255, 255));"/>
        </g>
        <g>
            <ellipse cx="118" cy="125.98" rx="3.5" ry="3.5" fill="#505150" stroke="none" pointer-events="all" style="fill: light-dark(rgb(80, 81, 80), rgb(80, 81, 80));"/>
        </g>
        <g>
            <ellipse cx="137" cy="125.98" rx="3.5" ry="3.5" fill="#505150" stroke="none" pointer-events="all" style="fill: light-dark(rgb(80, 81, 80), rgb(80, 81, 80));"/>
        </g>
    </g>
</svg>
